X: 1
T: les soeurs Cotnoir
C: \'Eric Favreau
M: 4/4
L: 1/8
B: Danse ce soir #89
F: http://mustrad.udenap.org/partitions/TQ388.jpg
Z: 2010 John Chambers <jc:trillian.mit.edu>
K: G
GA \
| "G" B2GB "D7"A2FD | "G"GDB,C DGAB | "C"c2Ac "G"~B2GB | "D7"Adfe dcBA |
| "G"~B2GB "D7"A2FD | "G"GDB,C DGAB | "C"cdef "G"fg-ge | [M:6/4] "G"d2B2 "D7"cAFA "G"G2 :| [M:4/4]
|: z2 \
| "G"Bd~d2 "D7"cAFA | "G7"G2DB, G,B,DB, | "Am"CDEG cBAG | "D7"FGAF D4 |
| "G"Bd~d2 "D7"cAFA | "G7"G2DB, G,B,DB, | "C"CDEG "G"cBAG | "D7"FGAF "G"G2 :|
